X: 18376
T: Hundred Pipers
R: jig
M: 6/8
K: Fmajor
|:A2C CDC|D2F F2d|c2A AGF|A2G GFG|
A2C CDC|D2F F2d|c2A GAG|1 F3 F2G:|2 F3 F2G||
|:A2c cAc|d2f f2d|c2A AGF|A2G GFG|
A2c cAc|d2f f2d|c2A GAG|F3 F2G|
A2c cAc|d2f f2d|c2A AGF|A2G GFG|
A2C CDC|D2F F2d|c2A GAG|F3 F2G||

